X: 771
T: Ji fei
%%abc-version 2.0
%%abcx-abcm2ps-target-version 5.9.1 (29 Sep 2008)
%%abc-creator hum2abc beta
%%abcx-conversion-date 2013/10/02 07:52:30
%%abc-edited-by Helmut Schaffrath
%%humdrum-veritas 1251015981
%%humdrum-veritas-data 2369546998
%%continueall 1
%%barnumbers 0
L: 1/8
M: 2/4
K: F
d f d c [I:setbarnb 1]| 
B2A G | 
F E D F | 
G4 | 
d f d c | 
B2A2 | 
G A d c | 
G2z2 | 
G z c z | 
G z c z | 
G2G c | 
F3E/ D/ | 
C3D | 
F3E/ D/ | 
C B, A, D | 
C4 |]  



